icons/ppe_face_shield_fill.svg

<svg width="48" height="48" viewBox="0 0 48 48" fill="none" xmlns="http://www.w3.org/2000/svg">
<path d="M30.8285 28.7574L23.7574 35.8284L22.3432 34.4142L29.4143 27.3432L30.8285 28.7574Z" fill="black"/>
<path d="M27.2929 37.9498L32.9498 32.2929L31.5356 30.8787L25.8787 36.5356L27.2929 37.9498Z" fill="black"/>
<path fill-rule="evenodd" clip-rule="evenodd" d="M11 16.6155C9.95022 16.1163 9.04916 15.5363 8.36933 14.8753C7.55855 14.087 7 13.1167 7 12C7 10.7829 7.66135 9.74312 8.59395 8.91627C9.52772 8.08839 10.8218 7.38853 12.3352 6.82103C15.3692 5.68327 19.4936 5 24 5C28.5064 5 32.6308 5.68327 35.6648 6.82103C37.1782 7.38853 38.4723 8.08839 39.406 8.91627C40.3386 9.74312 41 10.7829 41 12C41 13.1167 40.4415 14.087 39.6307 14.8753C38.9508 15.5363 38.0498 16.1163 37 16.6155V37.5352L33.4299 39.9153C27.7196 43.7221 20.2804 43.7221 14.5701 39.9152L11 37.5352V16.6155ZM9 12C9 11.5603 9.23408 11.0216 9.92077 10.4128C10.6063 9.80501 11.6553 9.21198 13.0374 8.69369C15.7943 7.65987 19.6699 7 24 7C28.3301 7 32.2057 7.65987 34.9626 8.69369C36.3447 9.21198 37.3937 9.80501 38.0792 10.4128C38.7659 11.0216 39 11.5603 39 12C39 12.4049 38.8033 12.8902 38.2364 13.4414C37.9195 13.7495 37.5067 14.0572 37 14.3558V14C37 12.3431 35.6569 11 34 11H14C12.3431 11 11 12.3431 11 14V14.3558C10.4933 14.0572 10.0805 13.7495 9.76358 13.4414C9.19673 12.8902 9 12.4049 9 12ZM15.6795 38.2511L13 36.4648V17H35V36.4648L32.3205 38.2512C27.282 41.6101 20.718 41.6101 15.6795 38.2511Z" fill="black"/>
</svg>

<svg
  xmlns="http://www.w3.org/2000/svg"
  width="24"
  height="24"
  viewBox="0 0 24 24"
  fill="none"
  stroke="currentColor"
  stroke-width="2"
  stroke-linecap="round"
  stroke-linejoin="round"
>
  <path d="m30.829 28.757-7.072 7.071-1.414-1.414 7.071-7.07z" />
  <path d="m27.293 37.95 5.657-5.657-1.414-1.414-5.657 5.657z" />
  <path
    fill-rule="evenodd"
    d="M11 16.616c-1.05-.5-1.95-1.08-2.63-1.74C7.558 14.086 7 13.115 7 12c0-1.217.661-2.257 1.594-3.084.934-.828 2.228-1.527 3.741-2.095C15.37 5.683 19.494 5 24 5s8.63.683 11.665 1.821c1.513.568 2.807 1.267 3.741 2.095C40.339 9.743 41 10.783 41 12c0 1.117-.559 2.087-1.37 2.875-.68.661-1.58 1.241-2.63 1.74v20.92l-3.57 2.38a17 17 0 0 1-18.86 0L11 37.535zM9 12c0-.44.234-.978.92-1.587.686-.608 1.735-1.201 3.117-1.72C15.794 7.66 19.67 7 24 7s8.206.66 10.963 1.694c1.382.518 2.43 1.111 3.116 1.719.687.609.921 1.147.921 1.587 0 .405-.197.89-.764 1.441-.316.308-.73.616-1.236.915V14a3 3 0 0 0-3-3H14a3 3 0 0 0-3 3v.356a6.5 6.5 0 0 1-1.236-.915C9.197 12.891 9 12.405 9 12m6.68 26.251L13 36.465V17h22v19.465l-2.68 1.786a15 15 0 0 1-16.64 0"
    clip-rule="evenodd"
  />
</svg>
